svgs/duotone/book-arrow-right.svg

<svg xmlns="http://www.w3.org/2000/svg" viewBox="0 0 640 512"><!-- Font Awesome Pro 6.0.0-alpha2 by @fontawesome - https://fontawesome.com License - https://fontawesome.com/license (Commercial License) --><defs><style>.fa-secondary{opacity:.4}</style></defs><path d="M64 416C64 433.672 78.328 448 96 448H416V384H96C78.328 384 64 398.326 64 416ZM632.969 191.031L552.969 111.031C543.594 101.656 528.406 101.656 519.031 111.031S509.656 135.594 519.031 144.969L558.062 184H280C266.75 184 256 194.75 256 208S266.75 232 280 232H558.062L519.031 271.031C514.344 275.719 512 281.844 512 288S514.344 300.281 519.031 304.969C528.406 314.344 543.594 314.344 552.969 304.969L632.969 224.969C642.344 215.594 642.344 200.406 632.969 191.031Z" class="fa-secondary"/><path d="M64 416C64 433.672 78.328 448 96 448H424C437.254 448 448 458.742 448 472V488C448 501.254 437.254 512 424 512H96C42.98 512 0 469.02 0 416V96C0 42.98 42.98 0 96 0H416C433.672 0 448 14.328 448 32V184H280C266.75 184 256 194.75 256 208S266.75 232 280 232H448V360C448 373.254 437.254 384 424 384H96C78.328 384 64 398.328 64 416Z" class="fa-primary"/></svg>

<svg xmlns="http://www.w3.org/2000/svg" viewBox="0 0 640 512"><!--! Font Awesome Pro 6.3.0 by @fontawesome - https://fontawesome.com License - https://fontawesome.com/license (Commercial License) Copyright 2023 Fonticons, Inc. --><defs><style>.fa-secondary{opacity:.4}</style></defs><path class="fa-primary" d="M64.44 421.4C66.1 437.1 81.78 448 97.72 448h318.3C433.7 448 448 462.3 448 479.1C448 497.7 433.7 512 416 512H96c-53.02 0-96-42.98-96-96V96c0-53.02 42.98-96 96-96h304C426.5 0 448 21.49 448 48v136H280C266.8 184 256 194.8 256 208s10.75 24 24 24H448v104c0 26.51-21.49 48-48 48H96C76.57 384 61.18 401.3 64.44 421.4z"/><path class="fa-secondary" d="M64 416c0 17.67 14.33 32 32 32h320L416 384H96C78.33 384 64 398.3 64 416zM632.1 191l-80-80c-9.375-9.375-24.56-9.375-33.94 0s-9.375 24.56 0 33.94L558.1 184H280C266.8 184 256 194.8 256 208s10.75 24 24 24h278.1l-39.03 39.03C514.3 275.7 512 281.8 512 288s2.344 12.28 7.031 16.97c9.375 9.375 24.56 9.375 33.94 0l80-80C642.3 215.6 642.3 200.4 632.1 191z"/></svg>
